**kern	**kern	**kern	**kern
*staff3	*staff4	*staff1	*staff2
*clefF4	*clefF4	*clefG2	*clefG2
*k[f#c#]	*k[f#c#]	*k[f#c#]	*k[f#c#]
*M2/4	*M2/4	*M2/4	*M2/4
*D:	*D:	*D:	*D:
=-	=-	=-	=-
8GL	4r	(8.ggL	2r
(8GJ	.	.	.
.	.	16eeJk	.
8EL	(4BB-	[4ccc#)	.
8GJ	.	.	.
=209	=209	=209	=209
8EL	2AA)	4ccc#]	2r
8GJ	.	.	.
8FL	.	(8.dddL	.
8DJ)	.	.	.
.	.	16aaJk)	.
=210	=210	=210	=210
8GL	4r	(8.ggL	2r
(8GJ	.	.	.
.	.	16eeJk	.
8EL	(4BB-	[4ccc#)	.
8GJ	.	.	.
=211	=211	=211	=211
8EL	2AA)	4ccc#]	2r
8GJ	.	.	.
8FL	.	(8.dddL	.
[8DJ) [8F	.	.	.
.	.	16eeeJk)	.
=212	=212	=212	=212
4.D;] 4.F;]	4.GG#; 4.BB;	4.fff;	2r
8r	8r	(8eee	.
=213	=213	=213	=213
2r	8r	8dddL	2r
.	(8GG 8E	8ccc#J	.
.	8FFL 8D	8dddL	.
.	8GGJ) 8E	8bb-J)	.
=214	=214	=214	=214
2r	8AA 8D 8F	8bb-	2r
.	8r	4aa	.
.	8AA 8E 8G	.	.
.	8r	([8cc#	.
=215	=215	=215	=215
2r	8D 8F	8cc#L]	2r
.	8r	8ddJ)	.
.	8d	4r	.
.	8r	.	.
*clefG2	*clefG2	*	*
=216	=216	=216	=216
*-	*-	*-	*-
